svgs/1F62A.svg

<svg xmlns="http://www.w3.org/2000/svg" xmlns:xlink="http://www.w3.org/1999/xlink" preserveAspectRatio="none" viewBox="0 0 72 72"><defs><path id="a" fill="#FCC21B" d="M127.85 93.4q0-27-8.5-47.1Q103.75 9.6 64 9.6T8.65 46.3Q.1 66.4.1 93.4q0 10.4 18.7 17.7 18.7 7.35 45.2 7.35 26.45 0 45.15-7.35 18.7-7.3 18.7-17.7z"/><path id="b" fill="#2F2F2F" d="M96.15 40.45Q95.3 41.8 93.7 43q-3.1 2.35-7.25 2.35-4.1 0-7.25-2.4-2.35-2.4-2.45-2.55-.75-1.3-2.3-1.3-.8 0-1.4.4-.95.55-1.25 1.65-.3 1.1.25 2.05.1.15 3.6 3.9 4.7 3.7 10.8 3.7 6.15 0 10.8-3.7 2.35-1.85 3.6-3.9.55-.95.25-2.05-.25-1.1-1.25-1.65-.95-.55-2.05-.3-1.1.3-1.65 1.25z"/><path id="c" fill="#2F2F2F" d="M52.3 47.1q2.35-1.85 3.55-3.9.6-.95.3-2.05-.25-1.1-1.25-1.65-.95-.6-2.05-.3-1.1.25-1.65 1.25-.75 1.25-2.35 2.45-3.15 2.45-7.35 2.45-4.15 0-7.25-2.35-2.35-2.45-2.4-2.55-.85-1.35-2.4-1.35-.75 0-1.35.4-.95.55-1.25 1.65-.3 1.1.25 2.05.1.15 3.6 3.9 4.65 3.7 10.8 3.7 6.1 0 10.8-3.7z"/><path id="d" fill="#ED6C30" d="M47.7 49.3q-1.75-1.75-4.05-2.85-3.45-1.75-7.6-1.75-4.1 0-7.55 1.75-2.3 1.1-4.05 2.85-2 2-2.7 4.35-.75 2.4.5 3.2.85.55 2.2.45.1-.05 3.3-.5 3.2-.453 8.35-.45 5.15.002 8.35.45 3.2.449 3.3.5 1.35.1 2.2-.45 1.2-.8.5-3.2-.7-2.35-2.75-4.35z"/><path id="e" fill="#40C0E7" d="M61.95 40.05q-3.25-1.9-7.15-1.4-2.1.3-5.65 1.75-3.7 1.55-6.6 3.4-.3.2.05.35 1.65.7 3.25 2.4.65.65 2.85 3.5 1.75 2.3 3.1 3.3 1.5 1.1 3.25 1.7 1.85.6 3.6.55 4.3-.2 6.65-4 2.35-3.75.55-7.55-1.2-2.5-3.9-4z"/><path id="f" fill="none" stroke="#2F2F2F" stroke-linecap="round" stroke-linejoin="round" stroke-width="3" d="M49.4 24.2q5.55-.2 8.9 3.8m-37.65-3.8q-5.55-.2-8.9 3.8"/></defs><use transform="scale(.5625)" xlink:href="#a"/><use transform="matrix(.56248 0 0 .56248 0 10)" xlink:href="#b"/><use transform="matrix(.56248 0 0 .56248 0 10)" xlink:href="#c"/><use transform="matrix(.75818 0 0 1 8.65 0)" xlink:href="#d"/><use xlink:href="#e"/><use transform="translate(1)" xlink:href="#f"/></svg>

<svg xmlns="http://www.w3.org/2000/svg" version="1.1" xmlns:xlink="http://www.w3.org/1999/xlink" preserveAspectRatio="none" x="0px" y="0px" width="72px" height="72px" viewBox="0 0 72 72">
<defs>
<g id="Layer0_0_FILL">
<path fill="#FCC21B" stroke="none" d="
M 127.85 93.4
Q 127.85 66.4 119.35 46.3 103.75 9.6 64 9.6 24.25 9.6 8.65 46.3 0.1 66.4 0.1 93.4 0.1 103.8 18.8 111.1 37.5 118.45 64 118.45 90.45 118.45 109.15 111.1 127.85 103.8 127.85 93.4 Z"/>
</g>

<g id="Layer0_1_MEMBER_0_FILL">
<path fill="#2F2F2F" stroke="none" d="
M 96.15 40.45
Q 95.3 41.8 93.7 43 90.6 45.35 86.45 45.35 82.35 45.35 79.2 42.95 76.85 40.55 76.75 40.4 76 39.1 74.45 39.1 73.65 39.1 73.05 39.5 72.1 40.05 71.8 41.15 71.5 42.25 72.05 43.2 72.15 43.35 75.65 47.1 80.35 50.8 86.45 50.8 92.6 50.8 97.25 47.1 99.6 45.25 100.85 43.2 101.4 42.25 101.1 41.15 100.85 40.05 99.85 39.5 98.9 38.95 97.8 39.2 96.7 39.5 96.15 40.45 Z"/>
</g>

<g id="Layer0_1_MEMBER_1_FILL">
<path fill="#2F2F2F" stroke="none" d="
M 52.3 47.1
Q 54.65 45.25 55.85 43.2 56.45 42.25 56.15 41.15 55.9 40.05 54.9 39.5 53.95 38.9 52.85 39.2 51.75 39.45 51.2 40.45 50.45 41.7 48.85 42.9 45.7 45.35 41.5 45.35 37.35 45.35 34.25 43 31.9 40.55 31.85 40.45 31 39.1 29.45 39.1 28.7 39.1 28.1 39.5 27.15 40.05 26.85 41.15 26.55 42.25 27.1 43.2 27.2 43.35 30.7 47.1 35.35 50.8 41.5 50.8 47.6 50.8 52.3 47.1 Z"/>
</g>

<g id="Layer0_2_FILL">
<path fill="#ED6C30" stroke="none" d="
M 47.7 49.3
Q 45.95 47.55 43.65 46.45 40.2 44.7 36.05 44.7 31.95 44.7 28.5 46.45 26.2 47.55 24.45 49.3 22.45 51.3 21.75 53.65 21 56.05 22.25 56.85 23.1 57.4 24.45 57.3 24.55 57.25078125 27.75 56.8 30.95 56.3474609375 36.1 56.35 41.25 56.35234375 44.45 56.8 47.65 57.2490234375 47.75 57.3 49.1 57.4 49.95 56.85 51.15 56.05 50.45 53.65 49.75 51.3 47.7 49.3 Z"/>
</g>

<g id="Layer0_3_FILL">
<path fill="#40C0E7" stroke="none" d="
M 61.95 40.05
Q 58.7 38.15 54.8 38.65 52.7 38.95 49.15 40.4 45.45 41.95 42.55 43.8 42.25 44 42.6 44.15 44.25 44.85 45.85 46.55 46.5 47.2 48.7 50.05 50.45 52.35 51.8 53.35 53.3 54.45 55.05 55.05 56.9 55.65 58.65 55.6 62.95 55.4 65.3 51.6 67.65 47.85 65.85 44.05 64.65 41.55 61.95 40.05 Z"/>
</g>

<path id="Layer0_4_1_STROKES" stroke="#2F2F2F" stroke-width="3" stroke-linejoin="round" stroke-linecap="round" fill="none" d="
M 49.4 24.2
Q 54.95 24 58.3 28
M 20.65 24.2
Q 15.1 24 11.75 28"/>
</defs>

<g id="Layer_1">
<g transform="matrix( 0.5625, 0, 0, 0.5625, 0,0) ">
<use xlink:href="#Layer0_0_FILL"/>
</g>

<g transform="matrix( 0.5624847412109375, 0, 0, 0.5624847412109375, 0,10) ">
<use xlink:href="#Layer0_1_MEMBER_0_FILL"/>
</g>

<g transform="matrix( 0.5624847412109375, 0, 0, 0.5624847412109375, 0,10) ">
<use xlink:href="#Layer0_1_MEMBER_1_FILL"/>
</g>

<g transform="matrix( 0.7581787109375, 0, 0, 1, 8.65,0) ">
<use xlink:href="#Layer0_2_FILL"/>
</g>

<g transform="matrix( 1, 0, 0, 1, 0,0) ">
<use xlink:href="#Layer0_3_FILL"/>
</g>

<g transform="matrix( 1, 0, 0, 1, 1,0) ">
<use xlink:href="#Layer0_4_1_STROKES"/>
</g>
</g>
</svg>
